X:1
T:More Like Jesus (Stillman)
T:More Like Jesus (Stillman)
T:Jairus Maxson Stillman
T:Jairus Maxson Stillman, 1878
T:Public Domain Courtesy of the Cyber Hymnal™
C:Jairus Maxson Stillman
Z:Public Domain
Z:Courtesy of the Cyber Hymnal™
%%score ( 1 2 ) ( 3 4 )
L:1/8
Q:1/4=95
M:6/8
K:F
V:1 treble 
V:2 treble 
V:3 bass 
V:4 bass 
V:1
 [Fc] | [Fc]>[Fd][Fc] (FG)[FA] | (B2 A) [DG]2 [DF] | [CE][DF][EG] [FA]2 [DG] | [EG]3- [EG]2 [Ec] | %5
w: 1.~I|want to be more * like|Je- * sus, And|fol- low Him day by|day; * I|
w: 2.~I|want to be kind * and|gen- * tle, To|those who are in dis-|tress; * To|
w: 3.~I|want to be meek * and|low- * ly, Like|Je- sus, our friend and|king; * I|
w: 4.~I|want to be pure * and|ho- * ly, As|pure as the crys- tal|snow; * I|
 [Fc]>[Fd][Fc] (FG)[FA] | (B2 A) [DG]2 [DF] | [CE][CF][CG] [EA]2 [EG] | F3- F2 z || %9
w: want to be true * and|faith- * ful, And|ev- ery com- mand o-|bey. *|
w: com- fort the brok- * en|heart- * ed With|sweet words of ten- der-|ness. *|
w: want to be strong * and|ear- * nest, And|souls to the Sav- ior|bring. *|
w: want to love Je- * sus|dear- * ly, For|Je- sus loves me, I|know. *|
"^Refrain" [Fd]2 [E^c] (de)[Ff] | (c2 A) F2 z | [EB]2 [GB] ([GB][FA])[EG] | ([FA]2 [GB] [Ac]2) z | %13
w: ||||
w: More and more * like|Je- * sus,|I would ev- * er|be; * *|
w: ||||
w: ||||
 [Fd]2 [E^c] (de)[Ff] | (c2 A) [Fc]2 [Fd] | [Fc][FA]F [FA]2 [EG] | F3- F2 |] %17
w: ||||
w: More and more * like|Je- * sus, My|Sav- ior who died for|me. *|
w: ||||
w: ||||
V:2
 x | x3 F2 x | F3 x3 | x6 | x6 | x3 F2 x | F3 x3 | x6 | F3- F2 x || x3 F2 x | F3 F2 x | x6 | x6 | %13
 x3 F2 x | F3 x3 | x2 F x3 | F3- F2 |] %17
V:3
 [F,A,] | [F,A,]>[F,B,][F,A,] (A,B,)[F,C] | (D2 C) [_B,,B,]2 [=B,,G,] | %3
w: ~|~ ~ ~ ~ * ~|~ * ~ ~|
 [C,G,][C,G,][C,C] [G,,=B,]2 [G,,B,] | [C,C]3- [C,C]2 [C,B,] | [F,A,]>[G,B,][F,A,] (A,B,)[F,C] | %6
w: ~ ~ ~ ~ ~|~ * ~|~ ~ ~ ~ * ~|
 (D2 C) [_B,,B,]2 [=B,,G,] | [C,G,][C,A,][C,B,] [C,C]2 [C,B,] | [F,A,]3- [F,A,]2 z || %9
w: ~ * ~ ~|~ ~ ~ ~ ~|~ *|
 [B,,B,]2 [B,,B,] (B,C)[B,,D] | (A,2 C) [F,A,]2 z | [C,C]2 [C,C] ([C,C]2 [C,C]) | %12
w: ~ ~ ~ * ~|~ * ~|~ ~ ~ *|
 [F,C]2 [F,C] [F,C]2 z | [B,,B,]2 [B,,B,] (B,C)[B,,D] | (A,2 C) [F,A,]2 [B,,B,] | %15
w: ev- er be|||
 [C,A,][C,F,][C,A,] [C,C]2 [C,B,] | [F,A,]3- [F,A,]2 |] %17
w: ||
V:4
 x | x3 F,2 x | =B,,3 x3 | x6 | x6 | x3 F,2 x | =B,,3 x3 | x6 | x6 || x3 B,,2 x | F,3 x3 | x6 | %12
 x6 | x3 B,,2 x | F,3 x3 | x6 | x5 |] %17

